svg/color/futuon.svg

<svg width="40" height="40" viewBox="0 0 40 40" fill="none" xmlns="http://www.w3.org/2000/svg">
<g clip-path="url(#clip0_819_3685)">
<path d="M20 0C31.0457 0 40 8.9543 40 20C40 31.0457 31.0457 40 20 40C8.95431 40 7.90517e-06 31.0457 0 20C6.58765e-07 8.95431 8.95431 1.97595e-06 20 0Z" fill="#CCDCF7"/>
<path d="M26 6C30.4183 6 34 9.58172 34 14V26C34 30.4183 30.4183 34 26 34H14C9.58172 34 6 30.4183 6 26V14C6 9.58172 9.58172 6 14 6H26Z" fill="#0052D9"/>
<path d="M27.7734 11.6666C27.9213 11.6666 28.0634 11.7258 28.168 11.8304C28.2726 11.935 28.3318 12.0771 28.3318 12.2251L28.3257 15.2768C28.3257 15.4248 28.2665 15.5668 28.1619 15.6715C28.0573 15.7761 27.9152 15.8353 27.7673 15.8353H18.9404C18.532 15.8353 18.1276 15.9158 17.7504 16.0722C17.3731 16.2287 17.0301 16.4583 16.7415 16.7474C16.453 17.0365 16.2239 17.3795 16.0681 17.7571C15.9123 18.1347 15.833 18.5395 15.8338 18.948V27.7757C15.8337 27.8489 15.8191 27.9216 15.7911 27.9892C15.7631 28.0567 15.7216 28.1178 15.67 28.1695C15.6182 28.2213 15.5565 28.2626 15.4888 28.2906C15.4211 28.3186 15.3486 28.3333 15.2753 28.3333H12.221C12.1478 28.3332 12.0751 28.3186 12.0075 28.2906C11.94 28.2626 11.8789 28.2212 11.8272 28.1695C11.7755 28.1178 11.7341 28.0567 11.7061 27.9892C11.6781 27.9216 11.6634 27.8489 11.6634 27.7757V17.8939C11.6634 16.2424 12.3199 14.6587 13.4877 13.4909C14.6554 12.3231 16.2391 11.6666 17.8906 11.6666H27.7734ZM23.6039 19.9821C23.9134 19.9822 24.1647 20.2327 24.1649 20.5423V23.5914C24.1649 23.9012 23.9136 24.1523 23.6039 24.1525H20.5547C20.2449 24.1525 19.9937 23.9013 19.9937 23.5914V20.5423C19.9939 20.2326 20.245 19.9821 20.5547 19.9821H23.6039Z" fill="white"/>
</g>
<defs>
<clipPath id="clip0_819_3685">
<rect width="40" height="40" fill="white"/>
</clipPath>
</defs>
</svg>

<svg xmlns="http://www.w3.org/2000/svg" width="40" height="40" fill="none" viewBox="0 0 40 40"><g clip-path="url(#futuon_svg-a)"><path fill="#CCDCF7" d="M20 0c11.046 0 20 8.954 20 20s-8.954 20-20 20S0 31.046 0 20 8.954 0 20 0"/><path fill="#0052D9" d="M26 6a8 8 0 0 1 8 8v12a8 8 0 0 1-8 8H14a8 8 0 0 1-8-8V14a8 8 0 0 1 8-8z"/><path fill="#fff" d="M27.773 11.667a.56.56 0 0 1 .559.558l-.006 3.052a.56.56 0 0 1-.559.558H18.94a3.107 3.107 0 0 0-3.106 3.113v8.828a.56.56 0 0 1-.559.557h-3.054a.56.56 0 0 1-.558-.557v-9.882a6.227 6.227 0 0 1 6.228-6.227zm-4.17 8.315c.31 0 .562.25.562.56v3.05a.56.56 0 0 1-.561.56h-3.05a.56.56 0 0 1-.56-.56v-3.05c0-.31.251-.56.56-.56z"/></g><defs><clipPath id="futuon_svg-a"><path fill="#fff" d="M0 0h40v40H0z"/></clipPath></defs></svg>
